X:1
T:Kadrilj efter Per Joel Berntsson 
T:(SvL Skne nr 499)
S:efter Per Joel Berndtsson
S:Svenska Ltar
R:Kadrilj
Z:Patrik Mnsson, 2009-01-03
O:Skralid, Skne
M:2/4
L:1/16
K:D
a2 | d'3f a3d | !trill!f4 e3d | cdef gbag | fAdf a3a | d'3f a3d |
!trill!f4 e3d |[1 cdef gabc' d'4 z2 :|[2 cdef gbac | d4 z2 ]|
K:G
